dist/assets/images/icons/planet.svg

<svg width="31" height="30" viewBox="0 0 31 30" fill="none" xmlns="http://www.w3.org/2000/svg">
<path fill-rule="evenodd" clip-rule="evenodd" d="M16.222 21.4753C17.8357 21.5573 19.2795 21.8032 20.7233 22.377C20.8932 22.459 21.0631 22.459 21.3179 22.541C22.1672 20.5738 22.5919 18.1967 22.6769 15.6558H16.222V21.4753ZM14.778 21.4753V15.7377H8.32339C8.40833 18.2787 8.91795 20.6557 9.68233 22.6229C9.8522 22.5409 10.0219 22.5409 10.2767 22.4589C11.6356 21.8032 13.1643 21.5573 14.778 21.4753ZM14.778 8.52453C13.1643 8.44256 11.7205 8.19665 10.2767 7.62288L9.68233 7.45904C8.91795 9.42625 8.40833 11.8033 8.32339 14.3442H14.778V8.52453ZM21.3179 7.45904L20.7233 7.62288C19.2795 8.19665 17.7507 8.44256 16.222 8.52453V14.2622H22.6769C22.5919 11.8032 22.0823 9.42625 21.3179 7.45904ZM24.4604 24.3442L24.8002 24.0163C27.0933 21.8032 28.4521 18.9344 28.6219 15.6558H24.1206C24.0356 18.4426 23.5262 20.9835 22.6769 23.1147C23.2714 23.5245 23.8658 23.8524 24.4604 24.3442ZM20.6383 26.7212C21.5726 26.3934 22.5068 25.8197 23.2712 25.2459C22.9315 24.918 22.4219 24.6721 21.9973 24.4262C21.9123 24.6721 21.7424 24.9179 21.6575 25.1638C21.4027 25.7376 21.063 26.2294 20.6383 26.7212ZM16.222 27.6229C16.7316 27.6229 17.1563 27.541 17.6659 27.541C18.77 26.9672 19.7042 25.8196 20.4686 24.5081C20.5535 24.2622 20.7234 24.0984 20.8084 23.8525L20.2138 23.6885C18.9398 23.1967 17.6658 22.9507 16.222 22.8688V27.6229ZM7.6438 25.2459C8.49311 25.8197 9.34249 26.3114 10.3617 26.7212C10.0219 26.2294 9.59725 25.7376 9.25752 25.1638C9.17259 24.9179 9.00265 24.6721 8.91772 24.4262C8.40813 24.6721 8.06845 24.918 7.6438 25.2459ZM2.29306 15.6558C2.46292 18.8525 3.90687 21.8032 6.11509 24.0163L6.45489 24.3442C7.04941 23.9344 7.64394 23.5246 8.32339 23.1967C7.47408 21.0656 6.96437 18.5246 6.87944 15.7377H2.29306V15.6558ZM6.45489 5.73767C6.36996 5.81964 6.28495 5.98352 6.11509 6.06549C3.90687 8.2786 2.46292 11.1475 2.29306 14.4262H6.79443C6.87936 11.6393 7.38906 9.09828 8.23838 6.96713C7.72879 6.47533 7.04941 6.14751 6.45489 5.73767ZM10.3617 3.36068C9.34249 3.68855 8.49311 4.26226 7.6438 4.83603C8.06845 5.1639 8.49306 5.40985 8.91772 5.65575C9.00265 5.40985 9.17259 5.16385 9.25752 4.91795C9.59725 4.34418 9.93701 3.85249 10.3617 3.36068ZM14.778 2.29507C14.2684 2.37704 13.8439 2.37707 13.3343 2.45904C12.3152 3.03281 11.3808 4.18031 10.5314 5.49178C10.4465 5.73768 10.2768 5.90163 10.1919 6.14754L10.7015 6.3115C11.9754 6.80331 13.3344 7.04913 14.6933 7.1311V2.29507H14.778ZM17.6659 2.45904C17.1563 2.37707 16.7316 2.37704 16.222 2.29507V7.1311C17.6658 7.04913 19.0247 6.80331 20.2138 6.3115L20.8084 6.14754C20.7234 5.90163 20.5535 5.73768 20.4686 5.49178C19.7042 4.18031 18.6851 3.11478 17.6659 2.45904ZM23.3562 4.75411C22.5069 4.18034 21.6576 3.68847 20.7233 3.27864C21.0631 3.77044 21.4028 4.26226 21.7425 4.83603C21.8274 5.08193 21.9973 5.3278 22.0823 5.57371C22.5069 5.3278 22.9315 5.08198 23.3562 4.75411ZM24.8002 5.98357C24.7152 5.9016 24.6302 5.81969 24.4604 5.65575C23.8658 6.06559 23.2713 6.47542 22.5919 6.80329C23.4412 8.93443 23.9509 11.4753 24.0358 14.2622H28.5372C28.4522 11.0655 27.0084 8.19668 24.8002 5.98357ZM14.778 27.6229V22.7869C13.4191 22.8688 11.9753 23.1148 10.7862 23.6066L10.2767 23.7704C10.3616 24.0163 10.4466 24.1803 10.6165 24.4262C11.4658 25.7376 12.4002 26.8851 13.4193 27.4589C13.844 27.6228 14.2684 27.6229 14.778 27.6229ZM15.5426 0C19.7892 0 23.6959 1.7213 26.4986 4.34425C29.3014 7.04916 31 10.8197 31 15C31 19.0984 29.3014 22.8688 26.4986 25.5737C23.6959 28.2786 19.7892 30 15.5426 30C11.2961 30 7.38904 28.2786 4.50137 25.5737C1.69862 22.8688 0 19.0984 0 15C0 10.9016 1.69862 7.13113 4.50137 4.34425C7.30411 1.7213 11.2111 0 15.5426 0Z" fill="#503E3F"/>
</svg>

<svg width="31" height="30" fill="none" xmlns="http://www.w3.org/2000/svg"><path fill-rule="evenodd" clip-rule="evenodd" d="M16.222 21.475c1.614.082 3.057.328 4.501.902.17.082.34.082.595.164.85-1.967 1.274-4.344 1.359-6.885h-6.455v5.82zm-1.444 0v-5.737H8.323c.085 2.54.595 4.918 1.36 6.885.17-.082.339-.082.594-.164 1.359-.656 2.887-.902 4.501-.984zm0-12.95c-1.614-.082-3.058-.328-4.501-.902l-.595-.164c-.764 1.967-1.274 4.344-1.359 6.885h6.455v-5.82zm6.54-1.066l-.595.164c-1.444.574-2.972.82-4.501.902v5.737h6.455c-.085-2.459-.595-4.836-1.36-6.803zm3.142 16.885l.34-.328c2.293-2.213 3.652-5.082 3.822-8.36H24.12c-.085 2.787-.595 5.327-1.444 7.459.594.41 1.189.737 1.783 1.23zm-3.822 2.377c.935-.328 1.869-.901 2.633-1.475-.34-.328-.85-.574-1.274-.82-.085.246-.255.492-.34.738-.254.574-.594 1.065-1.019 1.557zm-4.416.902c.51 0 .934-.082 1.444-.082 1.104-.574 2.038-1.721 2.803-3.033.084-.246.254-.41.34-.655l-.595-.165c-1.274-.491-2.548-.737-3.992-.82v4.755zm-8.578-2.377c.85.574 1.698 1.065 2.718 1.475-.34-.492-.765-.983-1.104-1.557-.085-.246-.255-.492-.34-.738-.51.246-.85.492-1.274.82zm-5.35-9.59c.169 3.196 1.613 6.147 3.821 8.36l.34.328c.594-.41 1.189-.82 1.868-1.147-.849-2.131-1.359-4.672-1.444-7.46H2.293v-.081zm4.16-9.918c-.084.082-.169.246-.339.327-2.208 2.214-3.652 5.083-3.822 8.361h4.501c.085-2.787.595-5.328 1.444-7.459-.51-.492-1.189-.82-1.783-1.23zm3.908-2.377c-1.02.328-1.869.901-2.718 1.475.424.328.85.574 1.274.82.085-.246.255-.492.34-.738a10.37 10.37 0 011.104-1.557zm4.416-1.066c-.51.082-.934.082-1.444.164-1.019.574-1.953 1.721-2.803 3.033-.085.246-.254.41-.34.656l.51.163c1.274.492 2.633.738 3.992.82V2.295h.085zm2.888.164c-.51-.082-.934-.082-1.444-.164v4.836c1.444-.082 2.803-.328 3.992-.82l.594-.163c-.085-.246-.255-.41-.34-.656-.764-1.312-1.783-2.377-2.802-3.033zm5.69 2.295a16.486 16.486 0 00-2.633-1.475c.34.491.68.983 1.02 1.557.084.246.254.492.34.738.424-.246.849-.492 1.273-.82zm1.444 1.23l-.34-.328c-.594.41-1.189.82-1.868 1.147.85 2.131 1.359 4.672 1.444 7.46h4.501c-.085-3.197-1.529-6.066-3.737-8.28zM14.778 27.623v-4.836c-1.359.082-2.803.328-3.992.82l-.51.163c.086.246.17.41.34.656.85 1.312 1.784 2.46 2.803 3.033.425.164.85.164 1.359.164zM15.543 0c4.246 0 8.153 1.721 10.956 4.344C29.3 7.05 31 10.82 31 15c0 4.098-1.699 7.869-4.501 10.574A15.831 15.831 0 0115.543 30c-4.247 0-8.154-1.721-11.042-4.426A14.673 14.673 0 010 15c0-4.098 1.699-7.869 4.501-10.656A16.19 16.19 0 0115.543 0z" fill="#503E3F"/></svg>
